X: 6
T: Run Johnny Run [2]
M:6/8
L:1/8
S: Viola "Mom" Ruth - Pioneer Western Folk Tunes (1948)
Z:AK/Fiddler's Companion
K:G
DGG GGB|GGG GGB|ADD DFG|ADD DEF|GGG GGB|
GGG GGB|ADD DEF|(G3G2):|
(B/c/)|ddB ddB|GGG G2 (c/d/)|eee eec|AAA A2 (B/c/)|
ddB ddB|GGG G2B|ADD DEF|G3G3||
K:D
Add ddf|ddd ddf|eAA ABc|eAA ABc|ddd ddf|ddd ddf|eAA ABc|d3d2||
(f/g/)|aaf aaf|ddd d2 (g/a/)|bbg bbg|eee e2 (f/g/)|aaf aaf|ddd d2f| eAA ABc|d3d3:|

%%sep 1 1 500
